icon-themes/sifr_svg/cmd/sc_commentchangetracking.svg

<svg viewBox="0 0 16 16" xmlns="http://www.w3.org/2000/svg"><path d="m1 1c-.554 0-1 .446-1 1v9 4l3-3h13v-2h-14v-7h14v-2zm2 3v5h1v-2h1l1 2h1v-.5761719l-1.1-1.4238281c.7-.2 1.129812-.8166834 1.1-1.5 0-.8284271-.671573-1.5-1.5-1.5h-1.5zm5 0v5h1 2v-1h-2v-1h2v-1h-2v-1h2v-1h-2zm6 0c-1.104569 0-2 .8954305-2 2v1c0 1.1045695.895431 2 2 2h1v-1h-1c-.552285 0-1-.4477153-1-1v-1c0-.5522847.447715-1 1-1h1v-1zm-10 1h1.5c.4138562 0 .5.2640502.5.5 0 .2403346-.203471.450342-.5.5h-1.5z" fill="#555753"/></svg>

<svg xmlns="http://www.w3.org/2000/svg" viewBox="0 0 16 16">
  <path
     style="fill:#555753"
     d="M 1,1 C 0.446,1 0,1.446 0,2 v 9 4 L 3,12 H 16 V 10 H 2 V 3 H 16 V 1 Z M 3,4 V 9 H 4 V 7 H 5 L 6,9 H 7 V 8.4238281 L 5.9,7 C 6.6,6.8 7.029812,6.1833166 7,5.5 7,4.6715729 6.328427,4 5.5,4 H 4 Z m 5,0 v 5 h 1 2 V 8 H 9 V 7 h 2 V 6 H 9 V 5 h 2 V 4 H 9 Z m 6,0 c -1.104569,0 -2,0.8954305 -2,2 v 1 c 0,1.1045695 0.895431,2 2,2 h 1 V 8 H 14 C 13.447715,8 13,7.5522847 13,7 V 6 c 0,-0.5522847 0.447715,-1 1,-1 h 1 V 4 Z M 4,5 H 5.5 V 5 C 5.9138562,5 6,5.2640502 6,5.5 6,5.7403346 5.796529,5.950342 5.5,6 H 4 Z"
     />
</svg>
